src/images/mesh-icon/image_computerUp.svg

<svg height="53" viewBox="0 0 104 53" width="104" xmlns="http://www.w3.org/2000/svg" xmlns:xlink="http://www.w3.org/1999/xlink"><mask id="a" fill="#fff"><rect fill="#fff" fill-rule="evenodd" height="56" rx="4" width="104"/></mask><g fill="none" fill-rule="evenodd"><rect fill="#e0eeff" height="65" rx="4" width="104"/><rect height="53" rx="4" stroke="#314d82" stroke-width="3" width="101" x="1.5" y="1.5"/><g mask="url(#a)"><g transform="translate(3 3)"><path d="m1 0h96c.5522847 0 1 .44771525 1 1v7h-98v-7c0-.55228475.44771525-1 1-1z" fill="#e6ecf6"/><path d="m0 8h98v42h-98z" fill="#f5f9ff"/><path d="m4.5 5.5c.82842712 0 1.5-.67157288 1.5-1.5s-.67157288-1.5-1.5-1.5-1.5.67157288-1.5 1.5.67157288 1.5 1.5 1.5z" fill="#ff3f3f"/><path d="m10.5 5.5c.8284271 0 1.5-.67157288 1.5-1.5s-.6715729-1.5-1.5-1.5c-.82842712 0-1.5.67157288-1.5 1.5s.67157288 1.5 1.5 1.5z" fill="#ff943f"/><path d="m16.5 5.5c.8284271 0 1.5-.67157288 1.5-1.5s-.6715729-1.5-1.5-1.5-1.5.67157288-1.5 1.5.6715729 1.5 1.5 1.5z" fill="#1ac46f"/></g></g></g></svg>

<?xml version="1.0" encoding="UTF-8"?>
<svg width="104px" height="53px" viewBox="0 0 104 53" version="1.1" xmlns="http://www.w3.org/2000/svg" xmlns:xlink="http://www.w3.org/1999/xlink">
    <title>image_computer</title>
    <defs>
        <rect id="path-1" x="0" y="0" width="104" height="56" rx="4"></rect>
    </defs>
    <g id="Dashboard" stroke="none" stroke-width="1" fill="none" fill-rule="evenodd">
        <g id="编组-2">
            <rect id="矩形" fill="#E0EEFF" x="0" y="0" width="104" height="65" rx="4"></rect>
            <g id="编组-7">
                <mask id="mask-2" fill="white">
                    <use xlink:href="#path-1"></use>
                </mask>
                <rect stroke="#314D82" stroke-width="3" x="1.5" y="1.5" width="101" height="53" rx="4"></rect>
                <g id="编组-5" mask="url(#mask-2)">
                    <g transform="translate(3.000000, 3.000000)">
                        <path d="M1,0 L97,0 C97.5522847,7.63596298e-15 98,0.44771525 98,1 L98,8 L98,8 L0,8 L0,1 C-2.8967998e-16,0.44771525 0.44771525,-9.5692398e-18 1,0 Z" id="矩形" fill="#E6ECF6"></path>
                        <rect id="矩形备份-9" fill="#F5F9FF" x="0" y="8" width="98" height="42"></rect>
                        <path d="M4.5,5.5 C5.32842712,5.5 6,4.82842712 6,4 C6,3.17157288 5.32842712,2.5 4.5,2.5 C3.67157288,2.5 3,3.17157288 3,4 C3,4.82842712 3.67157288,5.5 4.5,5.5 Z" id="椭圆形" fill="#FF3F3F"></path>
                        <path d="M10.5,5.5 C11.3284271,5.5 12,4.82842712 12,4 C12,3.17157288 11.3284271,2.5 10.5,2.5 C9.67157288,2.5 9,3.17157288 9,4 C9,4.82842712 9.67157288,5.5 10.5,5.5 Z" id="椭圆形备份-2" fill="#FF943F"></path>
                        <path d="M16.5,5.5 C17.3284271,5.5 18,4.82842712 18,4 C18,3.17157288 17.3284271,2.5 16.5,2.5 C15.6715729,2.5 15,3.17157288 15,4 C15,4.82842712 15.6715729,5.5 16.5,5.5 Z" id="椭圆形备份-3" fill="#1AC46F"></path>
                    </g>
                </g>
            </g>
        </g>
    </g>
</svg>
